src/icons/svgs/24/link.svg

<svg width="24" height="24" viewBox="0 0 24 24" fill="none" xmlns="http://www.w3.org/2000/svg">
<path d="M20.6844 5.3123C19.8319 4.46043 18.72 4.0223 17.6006 3.99793C16.4156 3.97221 15.2225 4.41043 14.3475 5.3123L12.5437 7.08886C12.9934 7.32086 13.4159 7.60543 13.7934 7.96011L15.3806 6.37261C15.9656 5.78824 16.7338 5.49574 17.5022 5.49574C18.2703 5.49574 19.0388 5.78821 19.6238 6.37261C20.7931 7.54261 20.7931 9.44574 19.6238 10.6164L16.0894 14.1507C14.955 15.2851 12.98 15.2842 11.8456 14.1507C11.2787 13.5839 10.9669 12.8311 10.9669 12.0292C10.9669 11.4804 11.1231 10.9595 11.3975 10.5001C11.0459 10.1761 10.5572 9.98699 10.0381 9.98699C10.0166 9.98699 9.99631 9.99224 9.97497 9.99283C9.65313 10.6189 9.46562 11.3064 9.46562 12.0282C9.46562 13.2304 9.93406 14.3607 10.7841 15.2095C11.6337 16.0595 12.7641 16.5279 13.9653 16.5279C15.1669 16.5279 16.2975 16.0598 17.1466 15.2095L20.6809 11.6751C21.5344 10.8001 21.9719 9.64699 22 8.49386C22 7.34074 21.5344 6.1898 20.6844 5.3123ZM8.61875 17.5939C8.03375 18.1782 7.26562 18.4707 6.49719 18.4707C5.72906 18.4707 4.96062 18.1783 4.37562 17.5939C3.20625 16.4239 3.20625 14.5207 4.37562 13.3501L7.91 9.81574C9.04437 8.68136 11.0194 8.6823 12.1538 9.81574C12.7206 10.3826 13.0325 11.1354 13.0325 11.9373C13.0325 12.4861 12.8763 13.007 12.6019 13.4664C12.9534 13.7904 13.4422 13.9795 13.9613 13.9795C13.9827 13.9795 14.0031 13.9742 14.0244 13.9736C14.3444 13.348 14.5325 12.6602 14.5325 11.9374C14.5325 10.7352 14.0641 9.60489 13.2141 8.75614C12.3644 7.90614 11.2341 7.43771 10.0328 7.43771C8.83128 7.43771 7.70066 7.90583 6.85159 8.75614L3.31594 12.3189C2.43875 13.1939 2 14.347 2 15.5001C2 16.6526 2.43875 17.8048 3.31594 18.6814C4.13188 19.4967 5.18188 19.9364 6.25219 19.9936C7.48406 20.0594 8.74125 19.6198 9.68031 18.6814L11.4563 16.9064C11.0066 16.6744 10.5841 16.3898 10.2066 16.0351L8.61875 17.5939Z" fill="black"/>
</svg>

<svg width="24" height="24" viewBox="0 0 24 24" xmlns="http://www.w3.org/2000/svg">
    <path d="M20.684 5.312a4.487 4.487 0 0 0-3.083-1.314 4.386 4.386 0 0 0-3.253 1.314L12.543 7.09c.45.232.872.516 1.25.871l1.587-1.587a2.993 2.993 0 0 1 2.121-.877c.768 0 1.537.292 2.122.877a3.006 3.006 0 0 1 0 4.243l-3.535 3.535c-1.134 1.134-3.109 1.133-4.243 0a2.971 2.971 0 0 1-.448-3.65 2.01 2.01 0 0 0-1.36-.514c-.021 0-.042.005-.063.006a4.437 4.437 0 0 0-.51 2.035c0 1.202.47 2.333 1.32 3.181a4.47 4.47 0 0 0 3.18 1.319 4.467 4.467 0 0 0 3.182-1.318l3.534-3.535A4.712 4.712 0 0 0 22 8.494c0-1.153-.466-2.304-1.316-3.182ZM8.62 17.594a2.993 2.993 0 0 1-2.122.877 2.993 2.993 0 0 1-2.121-.877 3.005 3.005 0 0 1 0-4.244L7.91 9.816c1.134-1.135 3.11-1.134 4.244 0a2.971 2.971 0 0 1 .448 3.65c.351.324.84.514 1.36.514.02 0 .041-.006.062-.006.32-.626.509-1.314.509-2.037a4.467 4.467 0 0 0-1.319-3.18 4.47 4.47 0 0 0-3.181-1.32 4.467 4.467 0 0 0-3.181 1.32l-3.536 3.562A4.48 4.48 0 0 0 2 15.5c0 1.153.439 2.305 1.316 3.181a4.502 4.502 0 0 0 6.364 0l1.776-1.775a5.477 5.477 0 0 1-1.25-.87L8.62 17.593Z"/>
</svg>
